!!!OTL: Graf und Nonne (Die Nonne) Du hast gesagt, du naehmest mich,
!!!ARE: Europa, Osteuropa, UdSSR, Rossiya, Bessarabien
!!!YOR: 8, S. 288
!!    ???? aufgezeichnet
!!!SCT: Q0155B.
!!!YEM: Copyright 1995, estate of Helmut Schaffrath.
**kern
*ICvox
*Ivox
*M4/4
*k[f#]
*G:
{4d
=1
4.g
8f#
4a
8e
8f#
=2
4g
4g
4d}
{4d
=3
4b
4b
8a
8b
4cc
=4
4b
2r}
{8g
8a
=5
4.b
8dd
4dd
4ee
=6
4dd
8ee
8dd
4cc}
{4b
=7
4.a
8a
4a
4b
=8
8cc
8dd
4ee
4dd}
{8dd
8cc
=9
4b
4b
8a
8b
4cc
=10
2b
4r}
{8g
8a
=11
4.b
8dd
4dd
4ee
=12
4dd
8ee
8dd
4cc}
{4b
=13
4.a
8a
4a
4b
=14
8cc
8dd
4ee
4dd}
{8dd
8cc
=15
4b
4b
8a
8b
4cc
=16
2b
4r}
==
!!!AGN: Ballade, Standesunterschied, vergebliche Werbung, Liebes - Lied
!! Verzierungen (Vorschlaege) in der dritten und sechsten Zeile.
!!!ONB: ESAC (Essen Associative Code) Database: BALLADE
!!!AMT: simple quadruple
!!!AIN: vox
!!!EED: Helmut Schaffrath
!!!EEV: 1.0
*-
